X:1
T:Domine ne in furore
T:Constantijn Huygens
T:Domine ne in furore
T:Psalmus 6:2,3,4
C:Constantijn Huygens
%%score 1 { ( 2 4 ) | 3 }
L:1/8
Q:1/4=67
M:4/4
K:Eb
V:1 treble nm="Voice" snm="V"
V:2 treble nm="Organ" snm="Org."
V:4 treble 
V:3 bass 
V:1
 G3 G G4 | B6 =BB | c>d e/B/c/G/ A2- A/E/F/D/ | G2 GF E4 | D4 E2 E=E | F2 F4 FF | G4 z GAA | %7
w: Do- mi- ne,|ne in fu-|ro- * * * * * * * * * *|* re tu- *|o ar- gu- as|me, ar- gu- as|me, ne- que in|
[M:3/4] B2 BB cc | d4 e2 | f2 f/ d/e/f/ g2- | g/ f/e/f/ d/e/e e>d | c4- c/f/e/f/ | =B3 c B2 | %13
w: i- ra, in i- ra,|i- ra|tu- a cor- * * *|* ri- * * * * * * *||* pi- as|
[M:4/4] c8 :: G8- | G4 G4 | ^F6 F2 | G2 F2 =E3 E | =E4 F4- | F2 F2 G2 G2 | A6 G2 | G4 z4 | %22
w: me.|Mi-|* se-|re- re|me- i, Do- mi-|ne, quo-|* ni- am in-|fir- mis|sum.|
 BB B4 cd | e4 e>e e2 | f>f f2 AGBF | _G2 =G4 G2 | G2 A2 =A4 | B2 z2 =B4 | c6 dd | e2 e2 z2 z G | %30
w: Sa- na me, sa- na|me, Do- mi- ne,|quo- ni- am con- tur- ba- ta|sunt os- sa|me- * *|a. Et|a- ni- ma|me- a tur-|
 BFGG BE z E | EB, E2 A2 G2 |[M:3/4] z6 | z2 G2 c2 | =B>B B2 B2 |[M:4/4] c>c c2 d>d d/ G/=A/=B/ | %36
w: ba- ta est, tur- ba- ta, tur-|ba- ta est val- de,||sed tu,|Do- mi- ne, tu,|Do- mi- ne, Do- mi- ne us- * *|
 c2 d2 e2 f2 | g6 c2 | d8 :| %39
w: |* que-|quo?|
V:2
 [EGc]4 [GBe]4 | [Ge]4 [Ff]4 | [Gce]8- | [Gce]8 | [=Bd]4 [Gc]4 | c3 d c4 | B3 c d4 |[M:3/4] e4 f2 | %8
 d4 e2- | e2 d4 | [Ec-]6 | c6 | [D=B]6 |[M:4/4] [=Ec]8 :: [Gce]8 | [G-=Bd]4 [Gc]4 | [^F=Ad-]8 | %17
 [Gd]4 [=EGc]4- | c8- | c6 B2 | [CA]4 [C-A]4 | [C=EG]8 | B4 [CB]2 [DA]2 | G4 c3 B | A6 B2 | B4 e4 | %26
 =e2 f4 _e2 | [FBd]4 [G=Bd]4 | [Gce]4 [G-d]4 | [EGc]8 | [FB]2 [EG]6 | c2 B2 A2 G2 |[M:3/4] z6 | %33
 z2 [EGc]4 | [G=Bd]4 [GBd]2 |[M:4/4] [Gce]4 [G-d]4 | [EGc]8- | [EGc]8 | [DG=B]8 :| %39
V:3
 C,4 G,2 F,2 | E,4 D,4 | C,8- | C,8 | G,,2 G,2 C2 B,2 | =A,2 B,2 A,2 _A,2 | G,6 F,2 | %7
[M:3/4] E,4 A,F, | B,6 | B,4 G,2 | C3 B, A,2- | A,2 F,4 | G,2 G,,4 |[M:4/4] C,8 :: C,8 | G,4 E,4 | %16
 D,4 C,4 | =B,,4 C,4- | C,4 F,4- | F,4 =E,4 | F,4 F,,4 | C,8 | G,4 F,4 | E,4 A,4 | _D4 _D,4 | %25
 E,6 _D,2 | C,8 | B,,2 B,2 G,4 | C4 =B,4 | C4 C,4 | D,2 E,6 | A,2 G,2 F,2 E,2 |[M:3/4] z6 | %33
 z2 C,4 | G,4 G,2 |[M:4/4] C4 =B,2 C2 | C8- | C4 C,4 | G,8 :| %39
V:4
 x8 | B6 =B2 | x8 | x8 | x8 | F6 F2 | G6 A2 |[M:3/4] G4 c2- | c2 BA G2 | F4 B2 | x6 | F2 A>GF>E | %12
 x6 |[M:4/4] x8 :: x8 | x8 | x8 | x8 | [EG]4 [F-=A]4 | [F!courtesy!_A]4 [CG-]4 | G4 F4 | x8 | %22
 !courtesy!_E4 F4 | E8 | F8 | _G2 =G6- | G2 A2 =A4 | x8 | x8 | x8 | x8 | E4 CD E2 |[M:3/4] x6 | %33
 x6 | x6 |[M:4/4] x8 | x8 | x8 | x8 :| %39

